!!!COM: Shostakovich, Dmitri
!!!OTL: Piano Prelude No. 21,
!! from Twenty-four Preludes, Opus 34,  (circa 1933).
!! Allegretto poco moderato
**kern	**kern
*M5/4	*M5/4
*MM208	*MM208
*B-:	*B-:
*tb8	*tb8
=1	=1
4BB-'	4r
4B-' 4d'	4b-'
4B-' 4d'	4cc'
4B-' 4d'	4dd'
4B-' 4d'	4ee-'
=2	=2
4BB-'	2ff
4B-' 4d'	.
4B-' 4d'	2bb-
4B-' 4d'	.
4B-' 4d'	4b-'
=3	=3
4BB-'	4cc'
4B-' 4c'	4ff'
4B-' 4c'	4g'
4B-' 4c'	2dd'
4B-' 4c'	.
=4	=4
4BB-'	[1b-
4B-' 4d'	.
4B-' 4d'	.
4B-' 4d'	.
4B-' 4d'	4b-']
=5	=5
4AA'	4a'
4A' 4B-'	4d'
4A' 4B-'	4b-'
4GG'	[2g
4G' 4B-'	.
*	*+
*	*	**kern
*	*	*M5/4
=6	=6	=6
4FF#'	1g_	4r
4GG'	.	4b-' 4gg'
4AA'	.	4b-' 4gg'
4BB-'	.	4b-' 4gg'
4C'	4g_	4b-' 4gg'
=7	=7	=7
4D'	2g_	4r
4E-'	.	4bn' 4gg'
2.C	2g]	4r
.	.	4cc' 4gg'
.	4r	4aa'
*	*-	*
=8	=8
4BB-'	{8bb-
.	8aa
4B-' 4d'	8gg
.	8dd
4B-' 4d'	4b-}
4B-' 4d'	4aa'
4B-' 4d'	4aa'
=9	=9
4AA'	{8aa
.	8gg
4A' 4c'	8ff
.	8cc
4A' 4c'	4a}
4A' 4c'	4gg'
4A' 4c'	4gg'
=10	=10
4GG'	4ff'
4G' 4B-'	4ee-'
4FF'	4dd'
4G' 4B-'	4cc'
4EEn	4b-'
=11	=11
4AA'	[2a
4A' 4c'	.
4A' 4c'	4a]
4A' 4c'	8r
.	8een'
4A' 4c'	8aa'
.	8bbn'
=12	=12
4AA'	4ddd-'
4A' 4c'	2ccc
4A' 4c'	.
4A' 4c'	{8bb-
.	8eeen
4A' 4c'	8ccc
.	8aa
=13	=13
4AAn'	8aa-
.	8dddn
4A' 4c'	8bb-
.	8gg
4A' 4c'	4ff#}
4A' 4c'	4dd'
4A' 4c'	4bb-'
*	*^
*	*	*
=14	=14	=14
4GG'	2r	1gg
4AA'	.	.
4BB-'	4g' 4b-	.
4C'	4g' 4b-	.
4D'	4g' 4b-	4r
*	*v	*v
=15	=15
4E-'	{8aa-
.	8gg
4G' 4c'	8ee-
.	8cc
4D'	4a-'}
4G' 4c'	4a-'
4C'	4a-'
=16	=16
4BB-'	4g
4AAn'	4f
4GG'	2e-
4Bn	.
4AA'	4f'
=17	=17
4D'	[2d
4F' 4A'	.
4F' 4A'	4d]
4F' 4A'	8r
.	8dd'
4F' 4A'	8ff'
.	8aa'
=18	=18
4D'	{4.eee-
4F' 4A'	.
.	8ddd
4F' 4A'	8ccc
.	8ddd
4F' 4A'	8ccc
.	8bb-
4F' 4A'	8aa
.	8bb-
=19	=19
4D'	2gg}
4F' 4A'	.
4F' 4A'	4ff'
4F' 4A'	4ee-'
4F' 4A'	4dd'
=20	=20
4r	2cc
4F'	.
4E-'	2bb-
4D'	.
4C'	4b-
=21	=21
4BB-'	4gg-'
4B-' 4d'	4gg-'
4B-' 4d'	4gg-'
4B-' 4d'	{8ff
.	8een
4B-' 4d'	4ff}
=22	=22
4BB-'	4gg-'
4B-' 4d'	4gg-'
4B-' 4d'	4gg-'
4B-' 4d'	{8ff
.	8een
4B-' 4d'	4ff}
=23	=23
4GG-'	8r
.	{8dd-
4B-' 4d-'	8gg-
.	8aa-
4B-' 4d-'	[4bb-
4B-' 4d-'	8bb-]
.	8aa-
4B-' 4d-'	8gg-
.	8dd-
=24	=24
4GG-'	2an
4B-' 4d-'	.
4B-' 4d-'	2b-
4B-' 4d-'	.
4B-' 4d-'	4cc
=25	=25
4FF#'	4ddn}
4A' 4dn'	4ff#'
4A' 4d'	{2bb-
4A' 4d'	.
4A' 4d'	[4aa'
=26	=26
4GG#'	8aa]
.	8gg#
4G#' 4Bn'	8dd#
.	8bn
4G#' 4B'	2ddd#
4G#' 4B'	.
4G#' 4B'	4dd#}
=27	=27
4GG#'	4een'
4G#' 4Bn'	4ddn'
4G#' 4B'	4cc'
4G#' 4B'	4bn'
4G#' 4B'	4a'
=28	=28
4AA'	{2bb-
4A' 4c'	.
4A' 4c'	[4aa
4A' 4c'	8aa]}
.	{8ddd
4A' 4c'	8bb-
.	8gg
=29	=29
4GG'	8dd-
.	4cc}
4G' 4B-'	.
.	{8dddn
4G' 4B-'	8bb-
.	8gg
4FF'	8cc-
.	4b-
4F' 4A'	.
.	8dd-
=30	=30
4BB-'	[2b-
4B-' 4d'	.
4B-' 4d'	4b-]}
4B-' 4d'	8r
.	8dd
4B-' 4d'	8ff'
.	8bb-'
=31	=31
4BB-'	{4.eee-
4B-' 4d'	.
.	8ddd
4B-' 4d'	8ccc
.	8ddd
4B-' 4d'	8ccc
.	8bb-
4B-' 4d'	8aa
.	8gg
=32	=32
4BB-'	4gg-}
4B-' 4d'	4gg-'
4B-' 4d'	{2gg-
4B-' 4d'	.
4B-' 4d'	4ff}
=33	=33
{8En	{8een
8D	8dd
8C	8cc
8BBn	8bn
4AA'}	4a'}
4GGn'	4cc'
4GG-'	4ff'
=34	=34
4FF'	4bb-'
4DD'	4r
2.BBB-'	2.B-'
==	==
*-	*-
